styles/3/Numix/22/places/red-folder-music.svg

<?xml version="1.0" encoding="UTF-8" standalone="no"?>
<!-- Created with Inkscape (http://www.inkscape.org/) -->

<svg
   xmlns:dc="http://purl.org/dc/elements/1.1/"
   xmlns:cc="http://creativecommons.org/ns#"
   xmlns:rdf="http://www.w3.org/1999/02/22-rdf-syntax-ns#"
   xmlns:svg="http://www.w3.org/2000/svg"
   xmlns="http://www.w3.org/2000/svg"
   xmlns:sodipodi="http://sodipodi.sourceforge.net/DTD/sodipodi-0.dtd"
   xmlns:inkscape="http://www.inkscape.org/namespaces/inkscape"
   width="22"
   height="22"
   id="svg2"
   version="1.1"
   inkscape:version="0.91 r"
   sodipodi:docname="red-folder-music.svg"
   inkscape:export-filename="/media/Data/Main/Visuals/Icons/Numix/Desktop/repos/numix-wiki/Gjorgi/Numix-folders/48/New/folder-144.png"
   inkscape:export-xdpi="270"
   inkscape:export-ydpi="270">
  <defs
     id="defs4" />
  <sodipodi:namedview
     id="base"
     pagecolor="#ffffff"
     bordercolor="#666666"
     borderopacity="1.0"
     inkscape:pageopacity="0.0"
     inkscape:pageshadow="2"
     inkscape:zoom="9.1903725"
     inkscape:cx="0.22771733"
     inkscape:cy="21.751301"
     inkscape:document-units="px"
     inkscape:current-layer="layer1"
     showgrid="true"
     inkscape:window-width="1280"
     inkscape:window-height="998"
     inkscape:window-x="0"
     inkscape:window-y="0"
     inkscape:window-maximized="1"
     showguides="true"
     inkscape:guide-bbox="true">
    <inkscape:grid
       type="xygrid"
       id="grid2985"
       empspacing="5"
       visible="true"
       enabled="true"
       snapvisiblegridlinesonly="true" />
  </sodipodi:namedview>
  <metadata
     id="metadata7">
    <rdf:RDF>
      <cc:Work
         rdf:about="">
        <dc:format>image/svg+xml</dc:format>
        <dc:type
           rdf:resource="http://purl.org/dc/dcmitype/StillImage" />
        <dc:title />
      </cc:Work>
    </rdf:RDF>
  </metadata>
  <g
     inkscape:label="Layer 1"
     inkscape:groupmode="layer"
     id="layer1"
     transform="translate(0,-1030.3622)">
    <rect
       style="fill:#d32f2f;fill-opacity:1;stroke:none"
       id="rect3757"
       width="20"
       height="5"
       x="0.99999928"
       y="1033.3622" />
    <path
       style="fill:#d32f2f;fill-opacity:1;stroke:none"
       d="m 3.9999992,1034.3622 c 0,-1 0,-2 0.909091,-2 l 3.1818188,0 c 0.90909,0 0.90909,1 0.90909,2 z"
       id="path3759"
       inkscape:connector-curvature="0"
       sodipodi:nodetypes="ccccc" />
    <path
       style="fill:#95989f;fill-opacity:1;stroke:none"
       d="m 2,1034.3622 17.999998,0 0,4 -17.999998,0 z"
       id="path3765"
       inkscape:connector-curvature="0" />
    <rect
       y="1034.3622"
       x="4.999999"
       height="6"
       width="14"
       id="rect3763"
       style="fill:#d8d8da;fill-opacity:1;stroke:none" />
    <rect
       style="fill:#f9f9f9;fill-opacity:1;stroke:none"
       id="rect3761"
       width="14"
       height="3.0000174"
       x="3"
       y="1035.3622" />
    <path
       style="fill:#ef5350;fill-opacity:1;stroke:none"
       d="m 0,1036.3622 21.999999,0 -1,14 -19.9999994,0 z"
       id="path2987"
       inkscape:connector-curvature="0"
       sodipodi:nodetypes="ccccc" />
    <path
       style="opacity:1.0;fill:#ab3634;fill-opacity:1;stroke:none"
       d="M 9.5 9 C 9.223 9 9 9.223 9 9.5 L 9 10.5 L 9 14.09375 C 8.845681 14.040108 8.672589 14 8.5 14 C 7.6715729 14 7 14.671573 7 15.5 C 7 16.328427 7.6715729 17 8.5 17 C 9.265885 17 9.8777166 16.428777 9.96875 15.6875 C 9.9939844 15.627641 10 15.56925 10 15.5 L 10 11 L 14 11 L 14 14.09375 C 13.845681 14.040108 13.672589 14 13.5 14 C 12.671573 14 12 14.671573 12 15.5 C 12 16.328427 12.671573 17 13.5 17 C 14.265885 17 14.877717 16.428777 14.96875 15.6875 C 14.993984 15.627641 15 15.56925 15 15.5 L 15 10.5 L 15 9.5 C 15 9.223 14.777 9 14.5 9 L 9.5 9 z "
       transform="translate(0,1030.3622)"
       id="path3003" />
  </g>
</svg>

<!-- Created with Inkscape (http://www.inkscape.org/) -->
<svg xmlns="http://www.w3.org/2000/svg" viewBox="0 0 22 22">
 <g transform="translate(0,-1030.3622)">
  <rect width="20" height="5" x="1" y="1033.36" style="fill:#d32f2f;fill-opacity:1;stroke:none"/>
  <path d="m 4 1034.36 c 0 -1 0 -2 0.909 -2 l 3.182 0 c 0.909 0 0.909 1 0.909 2 z" style="fill:#d32f2f;fill-opacity:1;stroke:none"/>
  <path d="m 2 1034.36 18 0 0 4 -18 0 z" style="fill:#95989f;fill-opacity:1;stroke:none"/>
  <rect y="1034.36" x="5" height="6" width="14" style="fill:#d8d8da;fill-opacity:1;stroke:none"/>
  <rect width="14" height="3" x="3" y="1035.36" style="fill:#f9f9f9;fill-opacity:1;stroke:none"/>
  <path d="m 0 1036.36 22 0 -1 14 -20 0 z" style="fill:#ef5350;fill-opacity:1;stroke:none"/>
  <path d="m 9.5 9 c -0.277 0 -0.5 0.223 -0.5 0.5 l 0 1 l 0 3.594 c -0.154 -0.054 -0.327 -0.094 -0.5 -0.094 c -0.828 0 -1.5 0.672 -1.5 1.5 c 0 0.828 0.672 1.5 1.5 1.5 c 0.766 0 1.378 -0.571 1.469 -1.313 c 0.025 -0.06 0.031 -0.118 0.031 -0.188 l 0 -4.5 l 4 0 l 0 3.094 c -0.154 -0.054 -0.327 -0.094 -0.5 -0.094 c -0.828 0 -1.5 0.672 -1.5 1.5 c 0 0.828 0.672 1.5 1.5 1.5 c 0.766 0 1.378 -0.571 1.469 -1.313 c 0.025 -0.06 0.031 -0.118 0.031 -0.188 l 0 -5 l 0 -1 c 0 -0.277 -0.223 -0.5 -0.5 -0.5 l -5 0 z" transform="translate(0,1030.3622)" style="fill:#ab3634;opacity:1;fill-opacity:1;stroke:none"/>
 </g>
</svg>
